X: 41398
T: Twenty Years
R: reel
M: 4/4
K: Amajor
AD (3DDD d2cA|BAGB ABBA|BE (3EEE Bz c2-|cBBA GABc|AD (3DDD d2cA|
BAGB ABBA|1 FAf2 fe c2-|ce BA BcBG:|2 FGAG ABc2-|cBcd eage ]|
f3e fga2-|agfe feBc|e2cA B3B|BABc eage|
f3e fga2-|agfe feBc|e2cA B2ae|abc'd' c'aeg|
f3e fga2-|agfe feBc|e2cA B3B|BABc ecBc|
AD (3DDD d2cA|BAGB ABBA|FAf2 fec2-|ceBA BcAG|
|:[FC]2 e[FC] efz[FC]|z[FC]e[FC] effe|[EB,]2 fB fgz[EB,]|z[EB,]fB fgfe|
[DA,]2 gA gaz[DA,]|z[DA,]gA gazd'-|d'c'bc' bafa-|aaba bc'ba:|

